src/assets/duotone/RefreshLeftSquare.svg

<?xml version="1.0" encoding="UTF-8"?>
<svg width="24" height="24" viewBox="0 0 24 24" xmlns="http://www.w3.org/2000/svg">
 <path d="m16.19 2h-8.37c-3.65 0-5.82 2.17-5.82 5.81v8.37c0 3.64 2.17 5.81 5.81 5.81h8.37c3.64 0 5.81-2.17 5.81-5.81v-8.37c0.01-3.64-2.16-5.81-5.8-5.81z" opacity=".4"/>
 <path d="m12 6.51c-0.14 0-0.29 0.01999-0.43 0.02999l0.28-0.32c0.27-0.31 0.24-0.79-0.07-1.06s-0.79-0.24-1.06 0.07l-1.67 1.91c-0.01 0.01-0.01 0.02001-0.02 0.03001-0.01 0.00999-0.02001 0.00999-0.02001 0.01999-0.02 0.03-0.02998 0.07001-0.04998 0.11001-0.02 0.05-0.05002 0.09-0.06002 0.13999-0.01 0.05-0.00999 0.09-0.01999 0.14 0 0.05-0.01001 0.09-0.01001 0.14s0.02001 0.09001 0.04001 0.14001c0.01 0.05 0.03001 0.08999 0.05001 0.12999s0.05999 0.08 0.08999 0.12c0.03 0.03 0.03999 0.07 0.06999 0.09 0.01 0.01 0.02 0.01001 0.03 0.02001s0.01001 0.01999 0.02001 0.01999l1.94 1.42c0.13 0.09999 0.29 0.14 0.44 0.14 0.23 0 0.46-0.11001 0.61-0.31001 0.24-0.32999 0.17-0.8-0.16-1.05l-0.56-0.41c0.18-0.02 0.37-0.04 0.56-0.04 2.34 0 4.25 1.91 4.25 4.25 0 2.34-1.91 4.25-4.25 4.25-2.34 0-4.25-1.91-4.25-4.25 0-0.85 0.25001-1.66 0.71001-2.36 0.23-0.34 0.13999-0.81001-0.21001-1.04-0.34-0.23-0.80999-0.14-1.04 0.21-0.63 0.95-0.97001 2.05-0.97001 3.19 0 3.17 2.58 5.75 5.75 5.75 3.17 0 5.75-2.58 5.75-5.75 0-3.17-2.57-5.73-5.74-5.73z"/>
</svg>

<svg width="24" height="24" viewBox="0 0 24 24"  xmlns="http://www.w3.org/2000/svg">
<path opacity="0.4" d="M16.19 2H7.82001C4.17001 2 2 4.17 2 7.81V16.18C2 19.82 4.17 21.99 7.81 21.99H16.18C19.82 21.99 21.99 19.82 21.99 16.18V7.81C22 4.17 19.83 2 16.19 2Z" />
<path d="M12.0002 6.50995C11.8602 6.50995 11.7102 6.52994 11.5702 6.53994L11.8502 6.21994C12.1202 5.90994 12.0902 5.42994 11.7802 5.15994C11.4702 4.88994 10.9902 4.91994 10.7202 5.22994L9.05023 7.13994C9.04023 7.14994 9.04023 7.15995 9.03023 7.16995C9.02023 7.17994 9.01022 7.17994 9.01022 7.18994C8.99022 7.21994 8.98024 7.25995 8.96024 7.29995C8.94024 7.34995 8.91022 7.38995 8.90022 7.43994C8.89022 7.48994 8.89023 7.52994 8.88023 7.57994C8.88023 7.62994 8.87022 7.66994 8.87022 7.71994C8.87022 7.76994 8.89023 7.80995 8.91023 7.85995C8.92023 7.90995 8.94024 7.94994 8.96024 7.98994C8.98024 8.02994 9.02023 8.06994 9.05023 8.10994C9.08023 8.13994 9.09022 8.17994 9.12022 8.19994C9.13022 8.20994 9.14022 8.20995 9.15022 8.21995C9.16022 8.22995 9.16023 8.23994 9.17023 8.23994L11.1102 9.65995C11.2402 9.75994 11.4002 9.79995 11.5502 9.79995C11.7802 9.79995 12.0102 9.68994 12.1602 9.48994C12.4002 9.15995 12.3302 8.68994 12.0002 8.43994L11.4402 8.02994C11.6202 8.00994 11.8102 7.98994 12.0002 7.98994C14.3402 7.98994 16.2502 9.89995 16.2502 12.2399C16.2502 14.5799 14.3402 16.4899 12.0002 16.4899C9.66023 16.4899 7.75023 14.5799 7.75023 12.2399C7.75023 11.3899 8.00024 10.5799 8.46024 9.87995C8.69024 9.53995 8.60023 9.06994 8.25023 8.83995C7.91023 8.60995 7.44024 8.69995 7.21024 9.04995C6.58024 9.99995 6.24023 11.0999 6.24023 12.2399C6.24023 15.4099 8.82023 17.9899 11.9902 17.9899C15.1602 17.9899 17.7402 15.4099 17.7402 12.2399C17.7402 9.06994 15.1702 6.50995 12.0002 6.50995Z" />
</svg>
